lib/svgs/single-selection.svg

<?xml version="1.0" encoding="UTF-8"?>
<svg width="16px" height="16px" viewBox="0 0 16 16" version="1.1" xmlns="http://www.w3.org/2000/svg" xmlns:xlink="http://www.w3.org/1999/xlink">
    <!-- Generator: sketchtool 51.3 (57544) - http://www.bohemiancoding.com/sketch -->
    <title>app/single-selection</title>
    <desc>Created with sketchtool.</desc>
    <defs></defs>
    <g id="Icons" stroke="none" stroke-width="1" fill="none" fill-rule="evenodd">
        <g id="Web" transform="translate(-433.000000, -592.000000)" fill="#000000">
            <g id="app/single-selection" transform="translate(433.000000, 592.000000)">
                <path d="M3.83333333,13.00275 C3.83333333,13.7394167 3.23666667,14.3360833 2.5,14.3360833 C1.76333333,14.3360833 1.16666667,13.7394167 1.16666667,13.00275 C1.16666667,12.2660833 1.76333333,11.6694167 2.5,11.6694167 C3.23666667,11.6694167 3.83333333,12.2660833 3.83333333,13.00275 Z M3.85833333,7.998 C3.85833333,8.73466667 3.26166667,9.33133333 2.525,9.33133333 C1.78833333,9.33133333 1.19166667,8.73466667 1.19166667,7.998 C1.19166667,7.26133333 1.78833333,6.66466667 2.525,6.66466667 C3.26166667,6.66466667 3.85833333,7.26133333 3.85833333,7.998 Z M14.2528628,13.6274167 L7.02513715,13.6274167 C6.71998945,13.6274167 6.47233333,13.3474167 6.47233333,13.0024167 C6.47233333,12.6574167 6.71998945,12.3774167 7.02513715,12.3774167 L14.2528628,12.3774167 C14.5580106,12.3774167 14.8056667,12.6574167 14.8056667,13.0024167 C14.8056667,13.3474167 14.5580106,13.6274167 14.2528628,13.6274167 Z M14.2528628,8.623 L7.02513715,8.623 C6.71998945,8.623 6.47233333,8.343 6.47233333,7.998 C6.47233333,7.653 6.71998945,7.373 7.02513715,7.373 L14.2528628,7.373 C14.5580106,7.373 14.8056667,7.653 14.8056667,7.998 C14.8056667,8.343 14.5580106,8.623 14.2528628,8.623 Z M2.99821477,4.39157372 C2.8717172,4.51627131 2.70295743,4.58332316 2.52952019,4.58332316 C2.35608296,4.58332316 2.18732318,4.51627131 2.0620759,4.3928019 L0.86566652,3.22165703 C0.600332535,2.96187788 0.600332535,2.53623217 0.86566652,2.27645302 C1.12509691,2.02245386 1.54141305,2.02245386 1.80084344,2.27645302 L2.879314,3.33234554 L2.52952019,3 L4.28248862,1.27382253 C4.54191901,1.01982337 4.95823515,1.01982337 5.21766554,1.27382253 C5.48299953,1.53360168 5.48299953,1.95902999 5.21764768,2.21882663 L2.99821477,4.39157372 Z M14.2528628,3.62216667 L7.02513715,3.62216667 C6.71998945,3.62216667 6.47233333,3.34216667 6.47233333,2.99716667 C6.47233333,2.65216667 6.71998945,2.37216667 7.02513715,2.37216667 L14.2528628,2.37216667 C14.5580106,2.37216667 14.8056667,2.65216667 14.8056667,2.99716667 C14.8056667,3.34216667 14.5580106,3.62216667 14.2528628,3.62216667 Z" id="Combined-Shape"></path>
            </g>
        </g>
    </g>
</svg>

<svg xmlns="http://www.w3.org/2000/svg" viewBox="0 0 16 16">
    <path d="M3.833 13.003a1.333 1.333 0 1 1-2.666 0 1.333 1.333 0 0 1 2.666 0zm.025-5.005a1.333 1.333 0 1 1-2.666 0 1.333 1.333 0 0 1 2.666 0zm10.395 5.63H7.025c-.305 0-.553-.28-.553-.626 0-.345.248-.625.553-.625h7.228c.305 0 .553.28.553.625s-.248.625-.553.625zm0-5.005H7.025c-.305 0-.553-.28-.553-.625s.248-.625.553-.625h7.228c.305 0 .553.28.553.625s-.248.625-.553.625zM2.998 4.392a.667.667 0 0 1-.936 0L.866 3.223a.66.66 0 0 1 0-.946.67.67 0 0 1 .935 0l1.078 1.056L2.53 3l1.753-1.726a.67.67 0 0 1 .936 0 .66.66 0 0 1 0 .945l-2.22 2.173zm11.255-.77H7.025c-.305 0-.553-.28-.553-.625s.248-.625.553-.625h7.228c.305 0 .553.28.553.625s-.248.625-.553.625z"/>
</svg>
